!!!!SEGMENT: pl-cz--i-155--009_anonim--landler-2.krn
!!!cenid: 18xx:2518
!!!COM: Anonim
!!!COM-rismid: pe30004985
!!!CDT:
!!!CNT:
!!!OTL: Ländler 2
!!!PDT:
!!!AGN: Secular
!!!SMS-siglum: PL-CZ
!!!SMS-shelfmark: I-155
!!!SMS-shelfwork: 009 W
!!!SMS-variant:
!!!SMS-altvar:
!!!NIFC-rismid: 1001012519
!!!URL-scan: http://repozytorium.nifc.pl/skany/pl-cz-nut--i-155
!!!ONB-nifc: UWAGA: 10 krótkich Landler numerowanych na pięcioliniach (nr 1-10, odpowiednio 008-017), m.in skan 0026. Uwaga: 5 partii
**kern	**kern	**kern	**kern	**kern
*part5	*part4	*part3	*part2	*part1
*staff5	*staff4	*staff3	*staff2	*staff1
*Icor	*Icor	*Ifagot	*Iclars	*Iclars
*I"Corno Secondo	*I"Corno Primo.	*I"Fagotto	*I"Clarinetto Secondo	*I"Clarinetto Primo
*I'cor 2	*I'cor 1	*I'fag	*I'cl 2	*I'cl 1
*>[A,A,B,B]	*>[A,A,B,B]	*>[A,A,B,B]	*>[A,A,B,B]	*>[A,A,B,B]
*>A	*>A	*>A	*>A	*>A
*clefG2	*clefG2	*clefF4	*clefG2	*clefG2
*ITrd5c9	*ITrd5c9	*	*ITrd1c2	*ITrd1c2
*k[b-]	*k[b-]	*k[b-]	*k[b-]	*k[b-]
*F:	*F:	*F:	*F:	*F:
*M3/4	*M3/4	*M3/4	*M3/4	*M3/4
*	*	*	*all\right	*all\right
4ryy	4ryy	4ryy	8cc\L	8cc\L
.	.	.	8bX\	8dd\
8ryy	8ryy	8ryy	8b-\J	8ee\J
=1	=1	=1	=1	=1
2.ryy	2.ryy	2.ryy	4a\	8ff\L
.	.	.	.	8ee\
.	.	.	8cc\L	8gg\
.	.	.	8a\	8ff\
.	.	.	8cc\	8aa\
.	.	.	8a\J	8ff\J
=2	=2	=2	=2	=2
2.ryy	2.ryy	2.ryy	4a/	8cc\L
.	.	.	.	8ff\
.	.	.	8f/L	8a\
.	.	.	8a/J	8cc\
.	.	.	8cc\L	8ff\
.	.	.	8ff\J	8aa\J
=3	=3	=3	=3	=3
2.ryy	2.ryy	2.ryy	8cc\L	8ee\L
.	.	.	8ee\J	8gg\
.	.	.	4cc\	8cc\
.	.	.	.	8ee\
.	.	.	8ee\L	8gg\
.	.	.	8gg\J	8bb-\J
=4	=4	=4	=4	=4
2.ryy	2.ryy	2.ryy	8ff\L	8aa\L
.	.	.	8aa\J	8ccc\J
.	.	.	8a\L	8ff\L
.	.	.	8cc\	8cc\
.	.	.	8bX\	8dd\
.	.	.	8b-\J	8ee\J
=5	=5	=5	=5	=5
2.ryy	2.ryy	2.ryy	4a\	8ff\L
.	.	.	.	8ee\
.	.	.	8b-\L	8gg\
.	.	.	8a\	8ff\
.	.	.	8cc\	8aa\
.	.	.	8a\J	8ff\J
=6	=6	=6	=6	=6
2.ryy	2.ryy	2.ryy	4a/	8cc\L
.	.	.	.	8ff\
.	.	.	8f\L	8a\
.	.	.	8a\	8cc\
.	.	.	8cc\	8ff\
.	.	.	8ff\J	8aa\J
!	!	!	!	!LO:LB:g=original
=7	=7	=7	=7	=7
2.ryy	2.ryy	2.ryy	8cc\L	8ee\L
.	.	.	8ee\	8bb-\
.	.	.	8b-\	8cc\
.	.	.	8dd\	8bb-\
.	.	.	8cc\	8aa\
.	.	.	8b-\J	8gg\J
!	!	!	!LO:LB:g=original	!
=8	=8	=8	=8	=8
*	*	*	*	*2\right
2ryy	2ryy	2ryy	4a\	2ff\
!	!	!	!LO:N:vis=8	!
.	.	.	4r	.
=:|!|:	=:|!|:	=:|!|:	=:|!|:	=:|!|:
*>B	*>B	*>B	*>B	*>B
4ryy	4ryy	4ryy	8ff\L	8aa\L
.	.	.	8aa\J	8ccc\J
=9	=9	=9	=9	=9
2.ryy	2.ryy	2.ryy	8gg\L	8bb-\L
.	.	.	8ee\J	8gg\J
.	.	.	4cc\	4ee\
.	.	.	8cc\L	8cc\L
.	.	.	8b-\J	8ee\J
=10	=10	=10	=10	=10
2.ryy	2.ryy	2.ryy	8a\L	8ff\L
.	.	.	8cc\J	8aa\J
.	.	.	4a\	4cc\
.	.	.	8f/L	8a\L
.	.	.	8a/J	8cc\J
=11	=11	=11	=11	=11
*	*	*	*2\right	*
*	*	*	*tremolo	*
2.ryy	2.ryy	2.ryy	8b-\L	8b-\L
.	.	.	8cc\	8gg\
.	.	.	8b-\	8ee\
.	.	.	8cc\	8cc\
.	.	.	8b-\	8ee\
.	.	.	8cc\J	8gg\J
*	*	*	*Xtremolo	*
=12	=12	=12	=12	=12
2.ryy	2.ryy	2.ryy	8a\L	8ff\L
.	.	.	8cc\	8gg\
.	.	.	8ff\	8aa\
.	.	.	8gg\	8bb-\
.	.	.	8aa\	8ccc\
.	.	.	8ff\J	8aa\J
=13	=13	=13	=13	=13
2.ryy	2.ryy	2.ryy	8gg\L	8bb-\L
!	!	!	!LO:SIC:v:s=8ee\J	!
.	.	.	8ff\J	8gg\J
.	.	.	4cc\	4ee\
.	.	.	8cc\L	8cc\L
.	.	.	8b-\J	8ee\J
=14	=14	=14	=14	=14
2.ryy	2.ryy	2.ryy	8a\L	8ff\L
.	.	.	8cc\J	8aa\J
.	.	.	4a\	4cc\
.	.	.	8f/L	8a\L
.	.	.	8a/J	8cc\J
!	!	!	!	!LO:LB:g=original
=15	=15	=15	=15	=15
*	*	*	*tremolo	*
2.ryy	2.ryy	2.ryy	8b-\L	8b-\L
.	.	.	8cc\	8gg\
.	.	.	8b-\	8ee\
.	.	.	8cc\	8cc\
.	.	.	8b-\	8ee\
.	.	.	8cc\J	8gg\J
*	*	*	*Xtremolo	*
=16	=16	=16	=16	=16
2ryy	2ryy	2ryy	2a\	2ff\
=:|!	=:|!	=:|!	=:|!	=:|!
*-	*-	*-	*-	*-
!!!system-decoration: [(s1,s2,s3)][(s4,s5)]
!!!ENC: Krzysztof Stępień
!!!END: 2021-06-16
!!!ENC: Andrzej Kubiczek
!!!END: 2021-06-24
